X:26
T:Ye sit in the sun sae louzy
Z:Jack Campin, http://www.campin.me.uk/
F:Jack Campin's Nine-Note Tunebook
% last edit 03-02-2013
S:Blaikie MS (NLS MS.1578) p33, Blaikie #107
M:6/8
L:1/8
Q:3/8=90
K:C
C|EGG G2G|A3  G2C|EGG G2G|A3 G2
C|EGG GEG|A2G G2F|E2E EDC|D3 C2|]

